X: 30190
T: Old French
R: waltz
M: 3/4
K: Gmajor
D|:G2 G2 d2|B2 B2 A2|A2 GG AB|E2 D2 G2|
G2 d2 B2|B2 AG A2|A6|A2 D2 E2|
G2 G2 d2|B2 B2 A2|A2 GG AB|E2 D2 d2|
d2 Bd A2|D4 DE|G4 AG|G6||
Bc|:d4 GA|B4 dB|A6|GG AB E2|D2 G2 GA|
Bc d2 dB|d2 A4|A6|DE G4|
d2 B4|A4 GG AB|E2 D2 d2|d2 Bd A2|
D2 DD E2|G4 AG|G6 G6:|

